packages/ui-icons/src/Basic/32/Whats-left_32.svg

<svg xmlns="http://www.w3.org/2000/svg" viewBox="0 0 40 40"><path d="M30 8h-4.4l-2-4h-7.17l-2.06 4H10v28h20ZM17.65 6h4.71l1 2h-6.74ZM28 34H12V10h16Zm-4-4h-8v-2h8Zm0-6h-8v-2h8Z"/></svg>

<svg id="Ready" xmlns="http://www.w3.org/2000/svg" viewBox="0 0 40 40"><title>Megaicons_work_32_1.8_cp</title><path d="M30,8H25.6l-2-4H16.43L14.37,8H10V36H30ZM17.65,6h4.71l1,2H16.62ZM28,34H12V10H28Zm-4-4H16V28h8Zm0-6H16V22h8Z"/></svg>
